svgs/sharp-regular/table-cells.svg

<svg xmlns="http://www.w3.org/2000/svg" viewBox="0 0 512 512"><!--! Font Awesome Pro 6.6.0 by @fontawesome - https://fontawesome.com License - https://fontawesome.com/license (Commercial License) Copyright 2024 Fonticons, Inc. --><path d="M360 80l0 88 104 0 0-88L360 80zm-48 0L200 80l0 88 112 0 0-88zM152 80L48 80l0 88 104 0 0-88zM48 216l0 80 104 0 0-80L48 216zm0 128l0 88 104 0 0-88L48 344zm152 88l112 0 0-88-112 0 0 88zm160 0l104 0 0-88-104 0 0 88zM464 296l0-80-104 0 0 80 104 0zM0 32l48 0 416 0 48 0 0 48 0 352 0 48-48 0L48 480 0 480l0-48L0 80 0 32zM200 296l112 0 0-80-112 0 0 80z"/></svg>

<svg xmlns="http://www.w3.org/2000/svg" viewBox="0 0 512 512"><!--! Font Awesome Pro 6.4.2 by @fontawesome - https://fontawesome.com License - https://fontawesome.com/license (Commercial License) Copyright 2023 Fonticons, Inc. --><path d="M360 80v88H464V80H360zm-48 0H200v88H312V80zM152 80H48v88H152V80zM48 216v80H152V216H48zm0 128v88H152V344H48zm152 88H312V344H200v88zm160 0H464V344H360v88zM464 296V216H360v80H464zM0 32H48 464h48V80 432v48H464 48 0V432 80 32zM200 296H312V216H200v80z"/></svg>
